X:918
T:The Serpent with Corners
C:Thomas Bending 1999
S:Colin Hume's website,  colinhume.com  - chords can also be printed below the stave.
B:http://www.thomasbending.co.uk/tunesdances
N:For the dance "The Eastbourne Rover" by Kevin Prigmore
Q:3/8=120
M:6/8
R:Jig
L:1/8
K:Am
P:A
e | "Am"ecA efe | "G"dBG ded | "Am"cBA ABc | "E"B^de =dcB |
"Am"ecA efe | "G"dBG ded | "F/F"cAF "G/G"dBG | "E/G#"ecB "Am/A"A2 :|
P:B
|: e | "Am"eaa aec | "Dm"fdc "G"Bcd | "C"ecB "F"ABc | "Dm"dBA "E"^G^FE |
"Am"ABc cBA | "Dm/F"dAA "Am/E"eAA | "Dm/D"faf "C/C"edc | "E/B"^dec "Am/A"A2 :|

